X:15
T:B015-  As May in all her youthful dress
S:via BBBM, from 'A Collection of 24 Songs', 1685
Q:1/4=120
L:1/4
M:4/4
K:F
f/2|\
f3/2 e/2 dc|(c/4d/4_e/2) (d/c/) A3/2 A/2|\
d3/2 e/2 (f/2d/2) (c/2A/2)|\
(A/4B/4c/2) (B/2A/2)G3/2 G/2|A(G/2F/2)c3/2f/2|\
(d/2e/2) (f/2d/2)g3/2a/2|(g/2e/2) (d/2c/2) G(d/4e/4f/2)|\
e(d/2c/2)c3/2||g/2|g3/2a/2g(f/2e/2)|d3/2 c/2 f3/2 f/2|\
(e/2f/2) (g/2e/2) ^c=B/2A/2|(e/2f/2) (g/2e/2)d3/2 f/2|\
(f_e/2)e/2 d (d/2c/2)|B3/2 A/2 A3/2 B/2|\
(c/2d/2) (c/2A/2)G3/2 F/2|(c/2d/2) (e/2c/2) f3/2|]
